assets/images/svg/home-location.svg

<svg width="22" height="22" viewBox="0 0 22 22" fill="none" xmlns="http://www.w3.org/2000/svg">
<path d="M8.26831 2.60316L3.32748 6.45316C2.50248 7.09482 1.83331 8.46066 1.83331 9.49649V16.289C1.83331 18.4157 3.56581 20.1573 5.69248 20.1573H16.3075C18.4341 20.1573 20.1666 18.4157 20.1666 16.2982V9.62482C20.1666 8.51566 19.4241 7.09482 18.5166 6.46232L12.8516 2.49316C11.5683 1.59482 9.50581 1.64066 8.26831 2.60316Z" fill="#808B97"/>
<path d="M11 16.4912V13.7412" stroke="white" stroke-width="1.2" stroke-linecap="round" stroke-linejoin="round"/>
</svg>

<svg xmlns="http://www.w3.org/2000/svg" width="22" height="22" fill="none" viewBox="0 0 22 22"><path fill="#808b97" d="m8.268 2.603-4.94 3.85c-.826.642-1.495 2.008-1.495 3.043v6.793c0 2.127 1.733 3.868 3.86 3.868h10.615a3.87 3.87 0 0 0 3.859-3.859V9.625c0-1.11-.743-2.53-1.65-3.163l-5.665-3.969c-1.284-.898-3.346-.852-4.584.11"/><path stroke="#fff" stroke-linecap="round" stroke-linejoin="round" stroke-width="1.2" d="M11 16.491v-2.75"/></svg>
